X:1
T:Mon cueur elist
T:Mon cueur elist
T:Nicolas Gombert
T:Source : Le Parangon des Chansons---IXième Livre---Lyon---J.Moderne---1541. Editor : André Vierendeels (12/12/14).
C:Nicolas Gombert
%%score [ 1 [ 2 3 4 ] ]
L:1/8
Q:1/4=98
M:2/2
K:C
V:1 treble nm="Superius" snm="S"
V:2 treble-8 nm="Tenor 1" snm="T 1"
V:3 treble-8 nm="Tenor 2" snm="T 2"
V:4 treble-8 nm="Tenor 3" snm="T 3"
V:1
 z8 | A6 A2 | A4 F4 | G4 A4 | z8 | A6 A2 | A8 | F4 G4 | A3 B cA c2 | B2 cB AG A2- |"^#" A2 G2 A4- | %11
w: |Mon cueur|e- list|pour soy,||mon cueur|e-|list pour|soy _ _ la Mar-|gue- ri- * * * *||
"^-natural" A4 G4- | G4 z2 A2 | A2 A2 E3 F | G2 G2 F2 F2 | E4 z4 | z2 A2 A2 A2 | G2 E2 G3 A | %18
w: * te,|_ à|mon ad- vis- ne|sceau- royt mieulx choi-|sir,|à- mon ad-|vis ne sceau- roys|
 B2 A4 G2 | A2 F2 A4- | A4 A4 | G4 z4 | z8 | z4 z2 A2 | G2 E2 GF GA | Bc d3 c c2- | c2 B2 c2 A2 | %27
w: mieulx choi- *|sir ro- se|_ ni|fleur||dont|si la puis _ _ _|_ _ _ _ _|* sai- sir, _|
 G2 c2 c2 B2 | c3 B/A/ B2 A2 | A2 G2 E2 c2 | B2 A2 A2 G2 | A4 E4- | E8- | E8- | E8 |] %35
w: _ gar- der la|veulx, _ _ _ ell'|le me- ri- *|te, ell' le me-|ri- te.|_|||
V:2
 z8 | z8 | z8 | z4 e4- | e2 e2 e4 | c4 f4- | f4 e2 f2- | fe dc d3 e | f2 e2 c2 g2- | gf e4 d2 | %10
w: |||Mon|_ cueur e-|list pour|_ soy _|_ _ _ _ _ la|Mar- gue- ri- *||
 e4 c4 | c2 c2 B2 G2 | d3 e f2 f2 | e4 z2 e2 | e2 e2 A3 B | cA c4 BA | B2 c2 A3 B | c2 B4 e2 | %18
w: te, à|mon ad- vis ne|sceau- royt mieulx choi-|sir, ne|sceau- royt mieulx _|_ _ choi- * *|sir, ne sceau- *|* roys mieulx|
 d2 c2 B4 | z2 d2 c3 d | e2 f3 e dc | d4 c2 f2 | e3 d/c/ B2 A2 | B2 c2 A3 B | cd e3 d ef | %25
w: _ choi- sir|ro- se _|_ ni _ _ _|fleur dont si|la _ _ puis sai-|||
 ge g3 f e2 | d4 c4 | z2 g2 g2 g2 | e3 e d2 c2 | B2 B2 c3 B/A/ | B2 c4 B2 | c2 A2 z2 A2 | %32
w: |* sir,|gar- der la|veulx _ _ car|ell' le me- * *|ri- * *|* te, ell'|
 A2 G2 A3 B | c4 B4- | B8 |] %35
w: le me- ri- *||te.|
V:3
 e6 e2 | e4 c4 | f3 e fe dc | d4 c3 B/A/ | B2 c2 B2 c2 | A2 f3 e dc | d4 c4 | z4 G4 | c3 d ec e2 | %9
w: Mon cueur|e- list|pour _ _ _ _ _|soy, mon _ _|cueur e- list pour|soy, pour _ _ _|_ soy|la|Mar- * * * gue-|
 d2 c4 BA | B4 A4 | z2 e2 e2 e2 | (3:2:2B4 c2 d2 d2 | c2 A2 c3 B/A/ | B2 c3 A d2 | cd ef ec f2- | %16
w: rii- * * *|* te,|à mon ad-|vis ne sceau- royt|mieulx choi- sir, _ _|_ _ ne sceau-|royt _ _ _ _ _ mieulx|
 fe e4 d2 | e4 E3 F | G2 A2 E4 | A8 | z8 | z2 G2 A2 FG | AB cd e2 f2- | fe e4 d2 | e2 c2 c2 c2 | %25
w: _ _ _ choi-|sir ro- *|* se ni|fleur||dont si la _|_ _ _ _ _ puis|_ _ _ sai-|sir, dont si la|
 G3 A B2 c2 | G2 g2 e2 f2- | fe dc d4 | c4 z4 | z2 F2 A3 F | G2 A2 E2 e2- | ed c2 B2 c2- | %32
w: puis _ _ sai-|||sir,|gar- der la|veulx, ell' le me-|* * ri- te, ell'|
 cB/A/ B2 cB AG | A4 G4- | G8 |] %35
w: _ _ _ le me- * * *|ri- te.|_|
V:4
 z4 A4- | A2 A2 A4 |"^b" F4 B4- | B4 A3 G/F/ | G2 A2 E2 A2- | AG FE D4 | z2 D2 A2 F2 | %7
w: Mon|_ cueur e-|list pour|_ soy, _ _|_ e- list pour|_ _ _ _ soy,|mon cueur e-|
"^b""^b" B6 B2 | A6 E2 | G2 A2 F4 | E4 z2 A2 | A2 A2 E3 F | G2 G2 F2 D2 | A8 | E4 F2 D2 | A6 GF | %16
w: list pour|soy la|Mar- gue- ri-|te, à|mon ad- vis ne|sceau- royt mieulx choi-|sir,|ne sceau- royt|mieulx _ _|
 G2 A2 F4 | E4 z4 | z4 z2 E2 | F2 DE FG AB | cA d3 c c2- | c2 B2 c2 A2 | c3 B/A/ G2 F2 | G2 A2 F4 | %24
w: _ _ choi-|sir|ro-|se ni _ _ _ _ _|_ _ _ _ _|* * fleur dont|si _ _ _ la|puis _ sai-|
 E4 z4 | z8 | z2 G2 A2 F2 | c4 G4 | A3 E G2 A2 | E4 A,4 | z4 z2 E2 | A3 E G2 A2 | E4 A,4 | E8- | %34
w: sir,||gar- der la|veulx car|ell' le me- *|ri- te,|ell'|le _ _ me-|ri- *|te.|
 E8 |] %35
w: _|

